X:1
T:Title
%%score 1 ( 2 3 ) 4
L:1/8
Q:1/4=125
M:3/2
K:D
V:1 treble nm="French Horn, Soprano"
V:2 treble nm="Grand Piano, Staff-1"
V:3 treble 
V:4 bass nm="Choir Pad, Bass"
V:1
 F4 A2 F2 d4 | A4 B2 d2 d4 | c4 d2 A2 A4 | B4 A2 G2 F4 | d4 d2 d2 d4 | d4 c2 dB A4 | %6
w: By~Asa~Brooks~Everett,~1859 * * *||||||
 A2 d2 d2 A2 A4 | A4 A2 G2 F4- | F4 z4 z4 |] %9
w: |||
V:2
 [DA]4 [DF]2 D2 [FA]4 | [DF]4 [EG]2 [FA]2 [GB]4 | [EA]4 D2 [CE]2 [DF]4 | [DG]4 [DF]2 [CE]2 D4 | %4
 [FA]4 [Fd]2 [FA]2 [GB]4 | A4 [Ge]2 d-[Ed] [Dc]4 | A4 [GB]2 [Gc]2 [Gc]4 | [Fd]4 [DF]2 [CE]2 D4- | %8
 D4 z4 z4 |] %9
V:3
 x12 | x12 | x12 | x12 | x12 | z4 z2 .F2 z4 | x12 | x12 | x12 |] %9
V:4
 D,4 D,2 D,2 D,4 | F,4 E,2 D,2 G,,4 | A,,4 B,,2 A,,2 D,4 | G,,4 A,,2 A,,2 D,4 | D,4 B,,2 D,2 G,4 | %5
 G,4 E,2 F,G, A,4 | F,4 G,2 F,2 E,4 | D,4 A,2 A,,2 D,4- | D,4 z4 z4 |] %9

